images/checkout/master-c.svg

<svg width="36" height="28" viewBox="0 0 36 28" fill="none" xmlns="http://www.w3.org/2000/svg">
<path d="M6.30133 27.7535V25.8582C6.3231 25.5357 6.20866 25.2192 5.98721 24.9894C5.76576 24.7596 5.45872 24.6388 5.14441 24.6577C4.73021 24.6299 4.33405 24.8356 4.11057 25.1948C3.90681 24.8464 3.53373 24.6403 3.13826 24.6577C2.79392 24.6399 2.46612 24.8105 2.27672 25.1063V24.7336H1.63672V27.7535H2.28287V26.0919C2.25504 25.8828 2.31957 25.6719 2.45885 25.5167C2.59813 25.3615 2.79761 25.2782 3.00287 25.2895C3.42749 25.2895 3.64287 25.5738 3.64287 26.0856V27.7662H4.28903V26.0919C4.26234 25.8831 4.32726 25.6728 4.46628 25.5179C4.6053 25.363 4.80409 25.2793 5.00903 25.2895C5.44595 25.2895 5.65518 25.5738 5.65518 26.0856V27.7662L6.30133 27.7535ZM15.8613 24.7336H14.809V23.8175H14.1629V24.7336H13.5783V25.3338H14.1752V26.7237C14.1752 27.425 14.4398 27.842 15.1967 27.842C15.4795 27.843 15.7568 27.7619 15.9967 27.6082L15.8121 27.0459C15.6405 27.151 15.4457 27.2097 15.246 27.2165C14.9383 27.2165 14.8213 27.0143 14.8213 26.7111V25.3338H15.8675L15.8613 24.7336ZM21.3198 24.6577C21.0019 24.6481 20.7044 24.8178 20.5444 25.1V24.7336H19.9106V27.7535H20.5506V26.0603C20.5506 25.5612 20.7598 25.2832 21.166 25.2832C21.3028 25.2813 21.4388 25.3071 21.566 25.359L21.7629 24.7272C21.6167 24.6736 21.4627 24.6458 21.3075 24.6451L21.3198 24.6577ZM13.0675 24.9736C12.7052 24.7525 12.2887 24.6429 11.8675 24.6577C11.1229 24.6577 10.6367 25.0242 10.6367 25.6244C10.6367 26.1172 10.9936 26.4204 11.6521 26.5152L11.9598 26.5594C12.3106 26.61 12.4767 26.7048 12.4767 26.8753C12.4767 27.1091 12.2429 27.2418 11.806 27.2418C11.4545 27.2522 11.1099 27.141 10.8275 26.9259L10.5198 27.4376C10.8926 27.7049 11.3391 27.8422 11.7936 27.8294C12.6429 27.8294 13.1352 27.4187 13.1352 26.8438C13.1352 26.2688 12.7475 26.0351 12.1075 25.9403L11.7998 25.8961C11.5229 25.8582 11.3013 25.8013 11.3013 25.5991C11.3013 25.3969 11.5106 25.2453 11.8613 25.2453C12.1855 25.2492 12.5034 25.3384 12.7844 25.5043L13.0675 24.9736ZM30.209 24.6577C29.8912 24.6481 29.5936 24.8178 29.4336 25.1V24.7336H28.7998V27.7535H29.4398V26.0603C29.4398 25.5612 29.649 25.2832 30.0552 25.2832C30.1921 25.2813 30.328 25.3071 30.4552 25.359L30.6521 24.7272C30.5059 24.6736 30.352 24.6458 30.1967 24.6451L30.209 24.6577ZM21.9629 26.2372C21.9475 26.6664 22.1089 27.0823 22.4076 27.3829C22.7063 27.6835 23.1145 27.841 23.5321 27.8167C23.9164 27.8368 24.294 27.7083 24.5906 27.4566L24.2829 26.9259C24.0616 27.0991 23.7919 27.1944 23.5136 27.1976C23.0231 27.1568 22.6452 26.7362 22.6452 26.2309C22.6452 25.7256 23.0231 25.305 23.5136 25.2643C23.7919 25.2674 24.0616 25.3627 24.2829 25.5359L24.5906 25.0052C24.294 24.7535 23.9164 24.625 23.5321 24.6451C23.1145 24.6208 22.7063 24.7783 22.4076 25.0789C22.1089 25.3795 21.9475 25.7955 21.9629 26.2246V26.2372ZM27.9567 26.2372V24.7336H27.3167V25.1C27.0962 24.8087 26.7527 24.6441 26.3936 24.6577C25.544 24.6577 24.8552 25.3649 24.8552 26.2372C24.8552 27.1096 25.544 27.8167 26.3936 27.8167C26.7527 27.8303 27.0962 27.6657 27.3167 27.3745V27.7409H27.9567V26.2372ZM25.5752 26.2372C25.6036 25.7415 26.0129 25.36 26.4962 25.3786C26.9796 25.3973 27.3598 25.8092 27.352 26.3057C27.3442 26.8022 26.9512 27.2013 26.4675 27.2039C26.2212 27.2071 25.9848 27.1045 25.8154 26.921C25.6459 26.7374 25.5589 26.4896 25.5752 26.2372ZM17.8521 24.6577C17.0024 24.67 16.3233 25.387 16.3352 26.2593C16.3471 27.1317 17.0455 27.8289 17.8952 27.8167C18.3379 27.84 18.7732 27.6937 19.1167 27.406L18.809 26.9196C18.5661 27.1196 18.2651 27.2308 17.9536 27.2355C17.5138 27.2743 17.1237 26.9466 17.0736 26.4963H19.2583C19.2583 26.4141 19.2583 26.332 19.2583 26.2435C19.2583 25.2959 18.686 24.6641 17.8613 24.6641L17.8521 24.6577ZM17.8521 25.2453C18.0455 25.2411 18.2327 25.3159 18.3723 25.4534C18.512 25.5908 18.5927 25.7796 18.5967 25.9782H17.0583C17.0814 25.5564 17.4286 25.2309 17.8398 25.2453H17.8521ZM33.886 26.2435V23.5205H33.2706V25.1C33.0501 24.8087 32.7066 24.6441 32.3475 24.6577C31.4978 24.6577 30.809 25.3649 30.809 26.2372C30.809 27.1096 31.4978 27.8167 32.3475 27.8167C32.7066 27.8303 33.0501 27.6657 33.2706 27.3745V27.7409H33.886V26.2435ZM34.9536 27.3144C34.9936 27.3139 35.0334 27.3214 35.0706 27.3366C35.1059 27.3514 35.1382 27.3728 35.166 27.3997C35.193 27.427 35.2149 27.4591 35.2306 27.4945C35.2621 27.5691 35.2621 27.6537 35.2306 27.7283C35.2149 27.7637 35.193 27.7958 35.166 27.823C35.1382 27.85 35.1059 27.8714 35.0706 27.8862C35.0337 27.9029 34.9939 27.9115 34.9536 27.9115C34.8346 27.9106 34.7267 27.8392 34.6767 27.7283C34.6456 27.6536 34.6456 27.5691 34.6767 27.4945C34.6924 27.4591 34.7143 27.427 34.7413 27.3997C34.769 27.3728 34.8014 27.3514 34.8367 27.3366C34.8768 27.3202 34.9198 27.3127 34.9629 27.3144H34.9536ZM34.9536 27.8483C34.9844 27.8485 35.0148 27.842 35.0429 27.8294C35.0694 27.8172 35.0934 27.8001 35.1136 27.7788C35.1934 27.6894 35.1934 27.5523 35.1136 27.4629C35.0934 27.4416 35.0694 27.4244 35.0429 27.4124C35.0147 27.3998 34.9843 27.3933 34.9536 27.3934C34.923 27.3936 34.8926 27.4 34.8644 27.4124C34.8368 27.424 34.8117 27.4412 34.7906 27.4629C34.7108 27.5523 34.7108 27.6894 34.7906 27.7788C34.8117 27.8005 34.8368 27.8176 34.8644 27.8294C34.8955 27.8431 34.9291 27.8496 34.9629 27.8483H34.9536ZM34.9721 27.4724C35.0008 27.471 35.0291 27.4799 35.0521 27.4977C35.0712 27.5139 35.0815 27.5386 35.0798 27.564C35.0807 27.5852 35.0729 27.6058 35.0583 27.6209C35.0404 27.6375 35.0177 27.6475 34.9936 27.6493L35.0829 27.7535H35.0121L34.929 27.6493H34.9013V27.7535H34.8429V27.4755L34.9721 27.4724ZM34.9044 27.5261V27.6019H34.9721C34.9842 27.6056 34.997 27.6056 35.009 27.6019C35.0134 27.593 35.0134 27.5824 35.009 27.5735C35.0134 27.5645 35.0134 27.554 35.009 27.545C34.997 27.5414 34.9842 27.5414 34.9721 27.545L34.9044 27.5261ZM31.5198 26.2435C31.5483 25.7478 31.9575 25.3663 32.4408 25.385C32.9242 25.4036 33.3044 25.8155 33.2966 26.312C33.2888 26.8086 32.8958 27.2076 32.4121 27.2102C32.1658 27.2134 31.9294 27.1108 31.76 26.9273C31.5905 26.7437 31.5035 26.4959 31.5198 26.2435ZM9.91057 26.2435V24.7336H9.27057V25.1C9.05007 24.8087 8.70656 24.6441 8.34749 24.6577C7.49782 24.6577 6.80903 25.3649 6.80903 26.2372C6.80903 27.1096 7.49782 27.8167 8.34749 27.8167C8.70656 27.8303 9.05007 27.6657 9.27057 27.3745V27.7409H9.91057V26.2435ZM7.52903 26.2435C7.55749 25.7478 7.9667 25.3663 8.45007 25.385C8.93344 25.4036 9.31365 25.8155 9.30583 26.312C9.29802 26.8086 8.90504 27.2076 8.42134 27.2102C8.17398 27.2152 7.93593 27.1134 7.76513 26.9296C7.59433 26.7459 7.50645 26.497 7.52287 26.2435H7.52903Z" fill="#231F20"/>
<path d="M13.1228 2.47949H22.8155V20.3625H13.1228V2.47949Z" fill="#FF5F00"/>
<path d="M13.739 11.4239C13.7354 7.93367 15.2956 4.63572 17.9698 2.48081C13.4282 -1.18358 6.90626 -0.64983 2.98745 3.70696C-0.931363 8.06375 -0.931363 14.7808 2.98745 19.1376C6.90626 23.4944 13.4282 24.0282 17.9698 20.3638C15.2964 18.2095 13.7363 14.913 13.739 11.4239Z" fill="#EB001B"/>
<path d="M35.893 11.4231C35.893 15.7773 33.4713 19.7491 29.6567 21.6519C25.842 23.5546 21.304 23.0541 17.97 20.363C20.6422 18.207 22.2024 14.9108 22.2024 11.4216C22.2024 7.93229 20.6422 4.63614 17.97 2.48009C21.304 -0.211006 25.842 -0.711464 29.6567 1.19126C33.4713 3.09399 35.893 7.06586 35.893 11.42V11.4231Z" fill="#F79E1B"/>
</svg>

<svg width="36" height="28" fill="none" xmlns="http://www.w3.org/2000/svg"><path d="M6.301 27.753v-1.895a1.142 1.142 0 00-.314-.869 1.08 1.08 0 00-.843-.331 1.13 1.13 0 00-1.033.537 1.073 1.073 0 00-.973-.537.965.965 0 00-.861.448v-.372h-.64v3.02h.646v-1.662a.72.72 0 01.176-.575.68.68 0 01.544-.227c.424 0 .64.284.64.796v1.68h.646v-1.674a.723.723 0 01.177-.574.684.684 0 01.543-.229c.437 0 .646.285.646.797v1.68l.646-.012zm9.56-3.02H14.81v-.916h-.646v.917h-.585v.6h.597v1.39c0 .701.265 1.118 1.022 1.118.283.001.56-.08.8-.234l-.185-.562a1.159 1.159 0 01-.566.17c-.308 0-.425-.202-.425-.505v-1.377h1.046l-.006-.6zm5.459-.075a.863.863 0 00-.776.442v-.366h-.633v3.02h.64V26.06c0-.499.209-.777.615-.777.137-.002.273.024.4.076l.197-.632a1.34 1.34 0 00-.456-.082l.013.013zm-8.252.316a2.157 2.157 0 00-1.2-.316c-.745 0-1.231.366-1.231.966 0 .493.357.796 1.015.891l.308.044c.35.051.517.146.517.316 0 .234-.234.367-.671.367a1.54 1.54 0 01-.978-.316l-.308.512c.373.267.82.404 1.274.391.849 0 1.341-.41 1.341-.985s-.387-.809-1.027-.904l-.308-.044c-.277-.038-.499-.095-.499-.297 0-.202.21-.354.56-.354.324.004.642.093.923.26l.284-.531zm17.141-.316a.863.863 0 00-.775.442v-.366H28.8v3.02h.64V26.06c0-.499.209-.777.615-.777a1.02 1.02 0 01.4.076l.197-.632a1.34 1.34 0 00-.455-.082l.012.013zm-8.246 1.58c-.015.428.146.844.445 1.145.298.3.706.458 1.124.434.384.02.762-.109 1.059-.36l-.308-.531a1.271 1.271 0 01-.77.272.96.96 0 01-.868-.967.96.96 0 01.869-.967c.278.003.548.099.769.272l.308-.53a1.513 1.513 0 00-1.059-.36 1.465 1.465 0 00-1.124.433c-.3.3-.46.716-.445 1.146v.012zm5.994 0v-1.504h-.64v.366a1.106 1.106 0 00-.923-.442c-.85 0-1.539.707-1.539 1.58 0 .872.689 1.579 1.539 1.579.359.013.702-.151.923-.442v.366h.64v-1.504zm-2.382 0a.899.899 0 01.921-.86c.484.02.864.431.856.928a.901.901 0 01-.884.898.872.872 0 01-.653-.283.921.921 0 01-.24-.684zm-7.723-1.58c-.85.012-1.529.729-1.517 1.601.012.873.71 1.57 1.56 1.558.443.023.878-.123 1.222-.411l-.308-.486c-.243.2-.544.31-.855.315a.821.821 0 01-.88-.739h2.184v-.252c0-.948-.572-1.58-1.397-1.58l-.009-.006zm0 .587c.194-.004.38.07.52.208.14.138.22.327.225.525h-1.539a.765.765 0 01.782-.733h.012zm16.034.998V23.52h-.615v1.58a1.106 1.106 0 00-.924-.442c-.85 0-1.538.707-1.538 1.58 0 .872.689 1.579 1.538 1.579.36.013.703-.151.924-.442v.366h.615v-1.497zm1.068 1.071a.3.3 0 01.277.18.301.301 0 01-.065.329.308.308 0 01-.212.088.307.307 0 01-.277-.183.305.305 0 010-.234.318.318 0 01.064-.094.302.302 0 01.222-.085h-.01zm0 .534a.215.215 0 00.16-.07.238.238 0 000-.315.217.217 0 00-.25-.05.224.224 0 00-.073.05.238.238 0 000 .316.228.228 0 00.172.07h-.01zm.018-.376a.12.12 0 01.08.026c.02.016.03.04.028.066a.077.077 0 01-.022.057.107.107 0 01-.064.028l.089.104h-.07l-.084-.104h-.028v.104h-.058v-.277l.13-.004zm-.068.054v.076h.068a.063.063 0 00.037 0 .032.032 0 000-.029.032.032 0 000-.028.064.064 0 00-.037 0l-.068-.019zm-3.384-1.282a.898.898 0 01.92-.859c.484.019.864.43.857.927a.901.901 0 01-.885.898.872.872 0 01-.652-.283.921.921 0 01-.24-.683zm-21.61 0v-1.51h-.64v.366a1.106 1.106 0 00-.923-.442c-.85 0-1.538.707-1.538 1.58 0 .872.689 1.579 1.538 1.579.36.013.703-.151.924-.442v.366h.64v-1.497zm-2.381 0a.898.898 0 01.921-.859c.483.019.864.43.856.927a.901.901 0 01-.885.898.872.872 0 01-.656-.28.92.92 0 01-.242-.686h.006z" fill="#231F20"/><path d="M13.123 2.48h9.693v17.883h-9.693V2.478z" fill="#FF5F00"/><path d="M13.739 11.424c-.004-3.49 1.557-6.788 4.23-8.943C13.43-1.184 6.907-.65 2.988 3.707c-3.918 4.357-3.918 11.074 0 15.43 3.92 4.357 10.441 4.891 14.983 1.227-2.674-2.155-4.234-5.451-4.231-8.94z" fill="#EB001B"/><path d="M35.893 11.423c0 4.354-2.422 8.326-6.236 10.229-3.815 1.903-8.353 1.402-11.687-1.289 2.672-2.156 4.232-5.452 4.232-8.941 0-3.49-1.56-6.786-4.232-8.942 3.334-2.69 7.872-3.19 11.687-1.289 3.814 1.903 6.236 5.875 6.236 10.229v.003z" fill="#F79E1B"/></svg>
